X:156
T:Newcastle
M:4/4
L:1/8
K:G
A2|:B2d2 G2A2|G3 A G2A2|B2d2 G2d2|e2 g4 fe| 
  |d2B2 A2G2|E2 e4 dc |d2B2 A3 G|1 G6 A2:|2 G6 ef|
  |:gfed g3B|A2 g4 A2|G3A B2G2 | E2 e4 f2| 
  |gfed g3B|A2A2 c3d|e2B2 A3G |1 G6 ef:|2 G6 A2|
